X: 17745
T: Hommage A Andre Alain
R: reel
M: 4/4
K: Amajor
B,DEF|"E"B2 FA G2 EG FD B,2B,DEG|"A"AGFE "B"DEFD "E"B,2 B,B, B,3 D|
B,CEG "A"AGFE "B"DFFD "C#m"E4|B,DEF|"G#m"B2 FA G2 EG FD B,2B,DEG|
"A"A2GA "G#m"B3G|"A"AGFE GFED "B"B,DEG AGFE|"E"B,AB,A "B/D#"F2 ED "C#m"EFGA B2BG|
"A"AGFE GFEB, "B"DFFD "E"E4|"B"A2GA "G#m"B2BG|"A"AGFE GFED "B"B,DEG AGFE|
"F#m"B,AB,A "G#m"F2 ED "A"EFGA B2BG|AGFE "C#m"GFEB, "B"DFFD "E"E4||

